X: 31403
T: Paddy On The Turnpike
R: reel
M: 4/4
K: Adorian
E/A/A/A/ AA/B/|c/B/A/B/ c/B/A/G/|E/G/G/G/ GG|E/G/G/G/ GG|
E/A/A/A/ AA/B/|c/B/A/B/ cc/d/|e/d/e/f/ g/f/e/d/|cA Az:|
|:ea ea|e/d/e/f/ g/f/e/d/|Bg Bg|B/A/B/c/ dz|
ea ea|e/d/e/f/ gd|e/d/e/f/ g/f/e/d/|eA Az:|

